svg/300/sharp/celebration.svg

<svg xmlns="http://www.w3.org/2000/svg" width="48" height="48" viewBox="0 -960 960 960"><path d="m111.925-113.079 165.23-461.535 298.535 295.69-463.765 165.845Zm76.383-76.383L493.461-298l-197.23-198.231-107.923 306.769ZM541.23-442.307l-27.846-27.846 307.383-307.384 89.308 89.923-27.077 27.845-61.846-62.846L541.23-442.307ZM395.692-584.999l-27.846-27.461 84.078-84.077-82.462-82.462 27.845-27.461L507.23-696.537 395.692-584.999Zm73.692 70.846-27.461-27.461 194.23-194.231L529.23-843.152l27.461-27.461L691.46-735.845 469.384-514.153Zm144.922 145.537-27.846-27.461 119.307-119.691 120.922 120.922L799.228-367l-93.461-93.461-91.461 91.845ZM188.308-189.462Z"/></svg>

<svg xmlns="http://www.w3.org/2000/svg" width="48" height="48" viewBox="0 -960 960 960"><path d="m111.93-113.08 165.22-461.53 298.54 295.69-463.76 165.84Zm76.38-76.38L493.46-298 296.23-496.23 188.31-189.46Zm352.92-252.85-27.85-27.84 307.39-307.39 89.3 89.93L883-659.77l-61.85-62.84-279.92 280.3ZM395.69-585l-27.84-27.46 84.07-84.08L369.46-779l27.85-27.46 109.92 109.92L395.69-585Zm73.69 70.85-27.46-27.46 194.23-194.23-106.92-107.31 27.46-27.46 134.77 134.77-222.08 221.69Zm144.93 145.53-27.85-27.46 119.31-119.69 120.92 120.92L799.23-367l-93.46-93.46-91.46 91.84Zm-426 179.16Z"/></svg>
